; generated by Slic3r 1.3.0 on 2019-07-03 at 09:56:47

; external perimeters extrusion width = 0.55mm (4.37mm^3/s)
; perimeters extrusion width = 0.70mm (11.44mm^3/s)
; infill extrusion width = 0.62mm (13.45mm^3/s)
; solid infill extrusion width = 0.70mm (3.81mm^3/s)
; top infill extrusion width = 0.70mm (2.86mm^3/s)

M107
M104 S200 ; set temperature
G28 ; home all axes
G1 Z5 F5000 ; lift nozzle

; Filament gcode

M109 S200 ; set temperature and wait for it to be reached
G21 ; set units to millimeters
G90 ; use absolute coordinates
M82 ; use absolute distances for extrusion
G92 E0
G1 Z0.350 F7800.000
G1 E-2.00000 F2400.00000
G92 E0
G1 X104.500 Y63.752 F7800.000
G1 E2.00000 F2400.00000
G1 F1800
G1 X104.804 Y63.309 E2.01665
G1 X105.854 Y62.143 E2.06517
G1 X106.032 Y61.987 E2.07250
G1 X107.319 Y61.105 E2.12080
G1 X107.943 Y60.778 E2.14258
G1 X109.395 Y60.222 E2.19067
G1 X110.077 Y60.050 E2.21245
G1 X111.618 Y59.848 E2.26054
G1 X112.322 Y59.839 E2.28232
G1 X113.867 Y60.002 E2.33040
G1 X114.554 Y60.158 E2.35219
G1 X116.019 Y60.676 E2.40028
G1 X116.651 Y60.987 E2.42206
G1 X117.955 Y61.833 E2.47015
G1 X118.496 Y62.283 E2.49194
G1 X119.568 Y63.409 E2.54003
G1 X119.989 Y63.972 E2.56181
G1 X120.769 Y65.317 E2.60990
G1 X121.048 Y65.963 E2.63168
G1 X121.492 Y67.453 E2.67977
G1 X121.613 Y68.146 E2.70155
G1 X121.701 Y68.920 E2.72564
G1 X124.534 Y120.521 E4.32466
G1 X124.163 Y123.097 E4.40519
G1 X123.738 Y124.271 E4.44381
G1 X123.255 Y125.422 E4.48243
G1 X122.864 Y126.252 E4.51082
G1 X122.387 Y127.097 E4.54084
G1 X122.178 Y127.412 E4.55255
G1 X121.131 Y128.633 E4.60230
G1 X120.852 Y128.888 E4.61401
G1 X111.428 Y136.908 E4.99688
G1 X110.698 Y137.447 E5.02496
G1 X109.547 Y138.181 E5.06719
G1 X108.224 Y138.830 E5.11279
G1 X106.939 Y139.291 E5.15504
G1 X105.783 Y139.592 E5.19201
G1 X103.276 Y140.007 E5.27062
G1 X102.365 Y140.094 E5.29896
G1 X99.825 Y140.159 E5.37756
G1 X98.910 Y140.119 E5.40591
G1 X96.385 Y139.834 E5.48452
G1 X95.485 Y139.668 E5.51285
G1 X93.024 Y139.037 E5.59146
G1 X92.154 Y138.748 E5.61980
G1 X89.845 Y137.801 E5.69703
G1 X88.983 Y137.378 E5.72674
G1 X86.788 Y136.099 E5.80535
G1 X86.031 Y135.584 E5.83369
G1 X84.033 Y134.014 E5.91230
G1 X83.354 Y133.399 E5.94063
G1 X81.593 Y131.569 E6.01924
G1 X81.005 Y130.866 E6.04758
G1 X79.512 Y128.810 E6.12619
G1 X79.027 Y128.034 E6.15453
G1 X77.833 Y125.792 E6.23313
G1 X77.459 Y124.955 E6.26147
G1 X76.585 Y122.570 E6.34008
G1 X76.331 Y121.690 E6.36842
G1 X75.794 Y119.207 E6.44702
G1 X75.663 Y118.300 E6.47536
G1 X75.475 Y115.766 E6.55398
G1 X75.470 Y114.851 E6.58231
G1 X75.633 Y112.316 E6.66091
G1 X75.755 Y111.408 E6.68926
G1 X76.265 Y108.919 E6.76786
G1 X76.631 Y107.725 E6.80650
G1 X76.858 Y107.173 E6.82496
G1 X77.401 Y106.131 E6.86133
G1 X104.459 Y63.815 E8.41541
G1 E6.41541 F2400.00000
G92 E0
G1 X115.821 Y121.898 F7800.000
G1 E2.00000 F2400.00000
G1 F1800
G1 X115.518 Y121.839 E2.00953
G1 X115.518 Y119.941 E2.06825
G1 X115.418 Y119.114 E2.09404
G1 X115.088 Y118.243 E2.12284
G1 X114.559 Y117.477 E2.15164
G1 X113.862 Y116.860 E2.18045
G1 X113.038 Y116.427 E2.20925
G1 X112.134 Y116.204 E2.23805
G1 X111.203 Y116.204 E2.26686
G1 X110.299 Y116.427 E2.29566
G1 X109.475 Y116.860 E2.32446
G1 X108.778 Y117.477 E2.35327
G1 X108.249 Y118.243 E2.38207
G1 X107.919 Y119.114 E2.41087
G1 X107.819 Y119.941 E2.43666
G1 X107.819 Y126.997 E2.65497
G1 X107.697 Y128.087 E2.68891
G1 X107.366 Y129.038 E2.72007
G1 X106.834 Y129.892 E2.75122
G1 X106.125 Y130.608 E2.78238
G1 X105.276 Y131.150 E2.81354
G1 X104.296 Y131.502 E2.84576
G1 X102.042 Y131.875 E2.91645
G1 X99.725 Y131.934 E2.98819
G1 X97.421 Y131.674 E3.05993
G1 X95.175 Y131.097 E3.13167
G1 X93.069 Y130.233 E3.20210
G1 X91.025 Y129.048 E3.27520
G1 X89.204 Y127.616 E3.34689
G1 X87.596 Y125.946 E3.41863
G1 X86.234 Y124.069 E3.49037
G1 X85.144 Y122.023 E3.56211
G1 X84.347 Y119.845 E3.63385
G1 X83.857 Y117.579 E3.70560
G1 X83.685 Y115.267 E3.77734
G1 X83.833 Y112.953 E3.84908
G1 X84.292 Y110.721 E3.91957
G1 X84.388 Y110.488 E3.92739
G1 X84.509 Y110.322 E3.93373
G1 X84.678 Y110.178 E3.94061
G1 X84.865 Y110.085 E3.94706
G1 X85.072 Y110.038 E3.95362
G1 X85.284 Y110.042 E3.96019
G1 X85.486 Y110.094 E3.96664
G1 X85.681 Y110.201 E3.97352
G1 X85.833 Y110.338 E3.97986
G1 X85.952 Y110.513 E3.98642
G1 X86.027 Y110.712 E3.99298
G1 X86.063 Y111.018 E4.00253
G1 X86.063 Y116.623 E4.17595
G1 X86.278 Y118.619 E4.23806
G1 X86.937 Y120.605 E4.30282
G1 X88.004 Y122.406 E4.36759
G1 X89.428 Y123.940 E4.43236
G1 X91.145 Y125.137 E4.49712
G1 X93.077 Y125.942 E4.56189
G1 X95.136 Y126.319 E4.62665
G1 X97.228 Y126.251 E4.69142
G1 X99.258 Y125.740 E4.75619
G1 X101.134 Y124.810 E4.82095
G1 X102.769 Y123.503 E4.88572
G1 X104.090 Y121.880 E4.95049
G1 X105.036 Y120.013 E5.01525
G1 X105.564 Y117.987 E5.08002
G1 X105.651 Y115.896 E5.14479
G1 X105.292 Y113.835 E5.20950
G1 X104.387 Y111.596 E5.28422
G1 X104.340 Y111.288 E5.29386
G1 X104.364 Y110.973 E5.30364
G1 X104.459 Y110.672 E5.31341
G1 X104.686 Y110.286 E5.32726
G1 X106.918 Y106.997 E5.45027
G1 X108.876 Y103.387 E5.57733
G1 X110.467 Y99.601 E5.70439
G1 X111.676 Y95.677 E5.83145
G1 X112.490 Y91.652 E5.95850
G1 X112.901 Y87.566 E6.08556
G1 X112.905 Y83.459 E6.21262
G1 X112.503 Y79.373 E6.33968
G1 X111.699 Y75.346 E6.46674
G1 X110.948 Y72.889 E6.54623
G1 X111.321 Y72.978 E6.55809
G1 X112.023 Y72.978 E6.57981
G1 X112.705 Y72.812 E6.60154
G1 X113.329 Y72.489 E6.62327
G1 X113.645 Y72.216 E6.63620
G1 X116.304 Y120.652 E8.13713
G1 X116.118 Y121.177 E8.15437
G1 X115.849 Y121.829 E8.17619
G1 X115.153 Y123.205 F7800.000
G1 F1800
G1 X115.048 Y123.112 E8.18053
G1 X114.968 Y122.997 E8.18486
G1 X114.918 Y122.866 E8.18920
G1 X114.893 Y122.668 E8.19538
G1 X114.893 Y119.979 E8.27859
G1 X114.807 Y119.264 E8.30086
G1 X114.530 Y118.536 E8.32497
G1 X114.088 Y117.895 E8.34907
G1 X113.505 Y117.378 E8.37318
G1 X112.815 Y117.016 E8.39729
G1 X112.058 Y116.829 E8.42140
G1 X111.279 Y116.829 E8.44551
G1 X110.522 Y117.016 E8.46961
G1 X109.833 Y117.378 E8.49372
G1 X109.249 Y117.895 E8.51783
G1 X108.807 Y118.536 E8.54194
G1 X108.530 Y119.264 E8.56605
G1 X108.444 Y119.979 E8.58832
G1 X108.444 Y127.031 E8.80654
G1 X108.310 Y128.226 E8.84372
G1 X107.934 Y129.309 E8.87920
G1 X107.327 Y130.282 E8.91469
G1 X106.520 Y131.098 E8.95017
G1 X105.553 Y131.714 E8.98566
G1 X104.454 Y132.109 E9.02179
G1 X102.102 Y132.498 E9.09557
G1 X99.697 Y132.560 E9.16999
G1 X97.307 Y132.290 E9.24442
G1 X94.977 Y131.692 E9.31884
G1 X92.792 Y130.795 E9.39192
G1 X90.673 Y129.567 E9.46771
G1 X88.783 Y128.081 E9.54209
G1 X87.116 Y126.348 E9.61651
G1 X85.703 Y124.401 E9.69094
G1 X84.572 Y122.278 E9.76536
G1 X83.745 Y120.020 E9.83978
G1 X83.237 Y117.669 E9.91420
G1 X83.059 Y115.270 E9.98862
G1 X83.213 Y112.870 E10.06305
G1 X83.691 Y110.538 E10.13670
G1 X83.839 Y110.180 E10.14868
G1 X84.047 Y109.894 E10.15963
G1 X84.331 Y109.653 E10.17115
G1 X84.653 Y109.492 E10.18229
G1 X85.007 Y109.412 E10.19350
G1 X85.369 Y109.418 E10.20471
G1 X85.717 Y109.509 E10.21585
G1 X86.044 Y109.687 E10.22737
G1 X86.307 Y109.924 E10.23832
G1 X86.511 Y110.223 E10.24952
G1 X86.638 Y110.563 E10.26073
G1 X86.688 Y110.981 E10.27376
G1 X86.688 Y116.590 E10.44731
G1 X86.892 Y118.485 E10.50630
G1 X87.509 Y120.344 E10.56692
G1 X88.507 Y122.030 E10.62754
G1 X89.840 Y123.466 E10.68815
G1 X91.448 Y124.586 E10.74877
G1 X93.256 Y125.340 E10.80939
G1 X95.183 Y125.693 E10.87000
G1 X97.141 Y125.629 E10.93062
G1 X99.041 Y125.150 E10.99124
G1 X100.796 Y124.280 E11.05185
G1 X102.327 Y123.057 E11.11247
G1 X103.563 Y121.537 E11.17309
G1 X104.448 Y119.790 E11.23370
G1 X104.943 Y117.894 E11.29432
G1 X105.024 Y115.937 E11.35494
G1 X104.688 Y114.008 E11.41552
G1 X103.781 Y111.763 E11.49044
G1 X103.712 Y111.312 E11.50456
G1 X103.747 Y110.854 E11.51876
G1 X103.884 Y110.417 E11.53296
G1 X104.158 Y109.952 E11.54963
G1 X106.384 Y106.671 E11.67231
G1 X108.312 Y103.116 E11.79745
G1 X109.879 Y99.388 E11.92259
G1 X111.069 Y95.522 E12.04773
G1 X111.871 Y91.558 E12.17287
G1 X112.276 Y87.534 E12.29801
G1 X112.281 Y83.490 E12.42315
G1 X111.885 Y79.465 E12.54829
G1 X111.092 Y75.499 E12.67343
G1 X110.038 Y72.046 E12.78512
G1 X110.273 Y71.892 E12.79383
G1 X110.366 Y71.972 E12.79763
G1 X110.857 Y72.224 E12.81470
G1 X111.395 Y72.353 E12.83181
G1 X111.948 Y72.353 E12.84892
G1 X112.485 Y72.222 E12.86602
G1 X112.976 Y71.968 E12.88313
G1 X113.394 Y71.606 E12.90024
G1 X113.715 Y71.156 E12.91735
G1 X113.894 Y70.709 E12.93224
G1 X114.191 Y70.758 E12.94155
G1 X116.934 Y120.743 E14.49046
G1 X116.701 Y121.400 E14.51205
G1 X116.371 Y122.204 E14.53893
G1 X116.020 Y122.947 E14.56435
G1 X115.916 Y123.103 E14.57016
G1 X115.813 Y123.198 E14.57449
G1 X115.690 Y123.264 E14.57883
G1 X115.554 Y123.300 E14.58316
G1 X115.414 Y123.301 E14.58750
G1 X115.220 Y123.239 E14.59381
G1 E12.59381 F2400.00000
G92 E0
G1 X113.570 Y68.653 F7800.000
G1 E2.00000 F2400.00000
G1 F1800
G1 X113.070 Y68.174 E2.02142
G1 X112.592 Y67.897 E2.03852
G1 X112.317 Y67.815 E2.04739
G1 X112.409 Y67.464 E2.05862
G1 X112.764 Y67.544 E2.06990
G1 X113.189 Y67.754 E2.08455
G1 X113.553 Y68.056 E2.09920
G1 X113.828 Y68.424 E2.11341
G1 X113.626 Y68.603 E2.12177
G1 E0.12177 F2400.00000
G92 E0
G1 X110.313 Y67.783 F7800.000
G1 E2.00000 F2400.00000
G1 F1800
G1 X110.335 Y67.631 E2.00474
G1 X110.391 Y67.489 E2.00948
G1 X110.477 Y67.366 E2.01412
G1 X110.596 Y67.262 E2.01899
G1 X111.145 Y66.974 E2.03819
G1 X111.746 Y66.822 E2.05738
G1 X112.380 Y66.817 E2.07697
G1 X112.974 Y66.951 E2.09583
G1 X113.531 Y67.226 E2.11505
G1 X114.009 Y67.623 E2.13427
G1 X114.381 Y68.120 E2.15349
G1 X114.628 Y68.690 E2.17271
G1 X114.738 Y69.322 E2.19257
G1 X117.565 Y120.833 E3.78879
G1 X117.285 Y121.624 E3.81474
G1 X116.943 Y122.456 E3.84258
G1 X116.566 Y123.255 E3.86991
G1 X116.394 Y123.513 E3.87950
G1 X116.178 Y123.710 E3.88856
G1 X115.921 Y123.850 E3.89762
G1 X115.637 Y123.924 E3.90668
G1 X115.344 Y123.927 E3.91575
G1 X115.059 Y123.859 E3.92481
G1 X114.799 Y123.725 E3.93387
G1 X114.579 Y123.532 E3.94294
G1 X114.411 Y123.292 E3.95200
G1 X114.307 Y123.018 E3.96106
G1 X114.269 Y122.706 E3.97079
G1 X114.269 Y120.017 E4.05400
G1 X114.196 Y119.415 E4.07275
G1 X113.973 Y118.828 E4.09217
G1 X113.617 Y118.312 E4.11158
G1 X113.147 Y117.896 E4.13099
G1 X112.591 Y117.604 E4.15040
G1 X111.982 Y117.454 E4.16982
G1 X111.355 Y117.454 E4.18923
G1 X110.746 Y117.604 E4.20864
G1 X110.190 Y117.896 E4.22806
G1 X109.721 Y118.312 E4.24747
G1 X109.364 Y118.828 E4.26688
G1 X109.142 Y119.415 E4.28629
G1 X109.069 Y120.017 E4.30505
G1 X109.069 Y127.066 E4.52317
G1 X108.923 Y128.365 E4.56360
G1 X108.501 Y129.580 E4.60341
G1 X107.820 Y130.672 E4.64323
G1 X106.915 Y131.587 E4.68304
G1 X105.830 Y132.279 E4.72285
G1 X104.612 Y132.716 E4.76290
G1 X102.161 Y133.122 E4.83977
G1 X99.670 Y133.186 E4.91687
G1 X97.194 Y132.906 E4.99398
G1 X94.780 Y132.287 E5.07108
G1 X92.516 Y131.357 E5.14682
G1 X90.322 Y130.085 E5.22528
G1 X88.363 Y128.545 E5.30237
G1 X86.635 Y126.750 E5.37947
G1 X85.172 Y124.733 E5.45657
G1 X84.000 Y122.534 E5.53368
G1 X83.143 Y120.194 E5.61078
G1 X82.617 Y117.758 E5.68788
G1 X82.432 Y115.273 E5.76498
G1 X82.592 Y112.786 E5.84208
G1 X83.091 Y110.354 E5.91891
G1 X83.290 Y109.872 E5.93504
G1 X83.586 Y109.466 E5.95059
G1 X83.984 Y109.127 E5.96676
G1 X84.442 Y108.899 E5.98259
G1 X84.942 Y108.786 E5.99845
G1 X85.454 Y108.794 E6.01430
G1 X85.949 Y108.924 E6.03013
G1 X86.408 Y109.174 E6.04630
G1 X86.781 Y109.510 E6.06185
G1 X87.070 Y109.934 E6.07770
G1 X87.250 Y110.413 E6.09356
G1 X87.313 Y110.943 E6.11006
G1 X87.313 Y116.556 E6.28374
G1 X87.506 Y118.352 E6.33962
G1 X88.081 Y120.084 E6.39609
G1 X89.011 Y121.654 E6.45256
G1 X90.253 Y122.992 E6.50902
G1 X91.750 Y124.035 E6.56549
G1 X93.434 Y124.737 E6.62196
G1 X95.230 Y125.066 E6.67842
G1 X97.054 Y125.006 E6.73489
G1 X98.823 Y124.561 E6.79136
G1 X100.458 Y123.750 E6.84782
G1 X101.884 Y122.611 E6.90429
G1 X103.036 Y121.195 E6.96076
G1 X103.861 Y119.567 E7.01723
G1 X104.321 Y117.801 E7.07369
G1 X104.397 Y115.978 E7.13016
G1 X104.084 Y114.180 E7.18662
G1 X103.174 Y111.929 E7.26174
G1 X103.083 Y111.335 E7.28033
G1 X103.129 Y110.735 E7.29895
G1 X103.309 Y110.161 E7.31757
G1 X103.629 Y109.618 E7.33708
G1 X105.849 Y106.346 E7.45942
G1 X107.748 Y102.846 E7.58264
G1 X109.291 Y99.174 E7.70586
G1 X110.463 Y95.368 E7.82908
G1 X111.252 Y91.465 E7.95230
G1 X111.651 Y87.502 E8.07552
G1 X111.656 Y83.520 E8.19875
G1 X111.266 Y79.557 E8.32197
G1 X110.485 Y75.651 E8.44519
G1 X109.331 Y71.872 E8.56746
G1 X109.289 Y71.685 E8.57340
G1 X109.294 Y71.523 E8.57839
G1 X109.338 Y71.368 E8.58338
G1 X109.419 Y71.229 E8.58837
G1 X109.532 Y71.114 E8.59336
G1 X109.667 Y71.033 E8.59824
G1 X109.826 Y70.984 E8.60336
G1 X109.986 Y70.977 E8.60833
G1 X110.144 Y71.010 E8.61331
G1 X110.288 Y71.081 E8.61829
G1 X110.717 Y71.450 E8.63580
G1 X111.076 Y71.634 E8.64828
G1 X111.469 Y71.729 E8.66077
G1 X111.872 Y71.728 E8.67326
G1 X112.265 Y71.633 E8.68575
G1 X112.623 Y71.447 E8.69824
G1 X112.928 Y71.183 E8.71073
G1 X113.163 Y70.854 E8.72322
G1 X113.313 Y70.479 E8.73572
G1 X113.371 Y70.080 E8.74821
G1 X113.333 Y69.678 E8.76070
G1 X113.201 Y69.296 E8.77319
G1 X112.983 Y68.956 E8.78568
G1 X112.692 Y68.677 E8.79817
G1 X112.343 Y68.474 E8.81066
G1 X111.956 Y68.360 E8.82315
G1 X111.552 Y68.339 E8.83565
G1 X111.005 Y68.443 E8.85288
G1 X110.852 Y68.435 E8.85762
G1 X110.705 Y68.392 E8.86236
G1 X110.572 Y68.315 E8.86711
G1 X110.461 Y68.209 E8.87185
G1 X110.378 Y68.081 E8.87659
G1 X110.321 Y67.858 E8.88371
G1 X110.448 Y67.709 F7800.000
G1 E6.88371 F2400.00000
G92 E0
G1 X113.859 Y68.814 F7800.000
G1 E2.00000 F2400.00000
G1 F1800
G1 X114.038 Y69.574 E2.03018
G1 F1800
G1 X114.072 Y70.026 E2.04645
G1 X114.057 Y70.040 E2.04719
G1 F1800
G1 X113.951 Y70.130 E2.05182
G1 F1800
G1 X113.769 Y70.281 E2.05884
G1 F1800
G1 X113.678 Y70.357 E2.06184
G1 E0.06184 F2400.00000
G92 E0
G1 X113.370 Y72.899 F7800.000
G1 E2.00000 F2400.00000
G1 F1800
G1 X113.108 Y72.997 E2.00069
G1 X111.577 Y73.846 F7800.000
G1 F1800
G1 X112.063 Y73.360 E2.02280
G1 X112.341 Y73.359 E2.03175
G1 X112.863 Y73.232 E2.04901
G1 X112.930 Y73.412 E2.05516
G1 X111.792 Y74.550 E2.10693
G1 X112.007 Y75.253 E2.13059
G1 X113.368 Y73.892 E2.19250
G1 X113.415 Y74.763 E2.22055
G1 X112.176 Y76.003 E2.27694
G1 X112.329 Y76.769 E2.30206
G1 X113.463 Y75.634 E2.35366
G1 X113.511 Y76.505 E2.38172
G1 X112.482 Y77.534 E2.42854
G1 X112.635 Y78.300 E2.45365
G1 X113.559 Y77.376 E2.49569
G1 X113.607 Y78.247 E2.52374
G1 X113.120 Y78.733 E2.54586
G1 X113.253 Y79.125 F7800.000
G1 F1800
G1 X113.335 Y80.196 E2.58951
G1 F1800
G1 X113.499 Y82.338 E2.66797
G1 F1800
G1 X113.583 Y83.445 E2.70396
G1 F1800
G1 X113.635 Y85.394 E2.77650
G1 F1800
G1 X113.688 Y87.344 E2.85832
G1 E0.85832 F2400.00000
G92 E0
G1 X115.479 Y117.580 F7800.000
G1 E2.00000 F2400.00000
G1 F1800
G1 X115.598 Y118.009 E2.00984
G1 F1800
G1 X115.658 Y118.294 E2.01525
G1 F1800
G1 X115.718 Y118.579 E2.01937
G1 F1800
G1 X115.779 Y118.864 E2.02220
G1 F1800
G1 X115.812 Y119.028 E2.02306
G1 X115.851 Y119.471 E2.02534
G1 F1800
G1 X115.891 Y119.922 E2.02636
G1 X115.909 Y120.595 E2.02787
G1 X115.866 Y120.848 E2.02844
G1 E0.02844 F2400.00000
G92 E0
G1 X115.058 Y117.224 F7800.000
G1 E2.00000 F2400.00000
G1 F1800
G1 X115.710 Y116.572 E2.02881
G1 X115.664 Y115.727 E2.05524
G1 X114.416 Y116.974 E2.11033
G1 X113.936 Y116.563 E2.13008
G1 X115.617 Y114.881 E2.20434
G1 X115.571 Y114.036 E2.23078
G1 X113.351 Y116.256 E2.32882
G1 X113.018 Y116.082 E2.34054
G1 X112.710 Y116.006 E2.35047
G1 X115.525 Y113.191 E2.47477
G1 X115.478 Y112.345 E2.50120
G1 X111.994 Y115.829 E2.65504
G1 X111.109 Y115.823 E2.68267
G1 X115.432 Y111.500 E2.87354
G1 X115.385 Y110.655 E2.89998
G1 X109.999 Y116.041 E3.13781
G1 X109.833 Y116.082 E3.14315
G1 X108.874 Y116.585 E3.17695
G1 X108.064 Y117.303 E3.21076
G1 X107.449 Y118.194 E3.24456
G1 X107.206 Y118.834 E3.26593
G1 X105.195 Y120.845 E3.35475
G1 X105.381 Y120.478 E3.36760
G1 X105.632 Y119.517 E3.39863
G1 X115.339 Y109.809 E3.82727
G1 X115.293 Y108.964 E3.85370
G1 X105.943 Y118.313 E4.26651
G1 X105.982 Y117.383 E4.29559
G1 X115.246 Y108.118 E4.70465
G1 X115.200 Y107.273 E4.73108
G1 X106.021 Y116.452 E5.13639
G1 X106.035 Y116.098 E5.14748
G1 X105.953 Y115.628 E5.16237
